X: 1714
T: The Mill Belongs to Sandy
B: australian traditional tunes wiki
M:2/4
L:1/16
R: Set Tune
Q: 1/4=100
K:D
V:1 
|:"D"D2F2 .A2FE|D2F2 .A2FE|D2F2 A2F2|"A"E6 D2|
E2G2 .B2G2|E2G2 .B2G2|A2A2 GEGE|"D"F6 E2:|
|:"D"AAAA A2F2|"G"G2B2 B4|"D"AAAA A2F2|"A"E8|
"D"AAAA A2F2|"G"G2B2 B3B|"A"A2A2 G2E2|"D"D4:|
% abcbook-tune_id 6342d53a9f14e740b47fab7c


% abcbook-boost 0
% abcbook-tablature 
% abcbook-transpose 
% abcbook-lastupdated 1665324379653
% abcbook-soundfonts 
% abcbook-repeats 1
% NFF Book 2013

